X: 7921
T: Concert, The
R: reel
M: 4/4
K: Adorian
|:A2 GB AE E2|GABG A3B|dBAB GFGB|d2eB dBAc|
BAGB AE E2|GABG A2 (3Bcd|ea a2 gedB|1 GBdB BAdB:|2 GBdB BAA2||
|:ea a2 bgag|edef gedB|degb a2ga|bgab ged2|
ea a2 ea a2|edef gedB|g3e d2 ge|1 dBGA BAA2:|2 dBGA BAdB||

